icons/file-subtract-filled.svg

<svg viewBox="0 0 16 20"><path fill="currentColor" fill-rule="evenodd" d="M3.2 19.6h9.6a2.4 2.4 0 0 0 2.4-2.4v-12.2a2 2 0 0 0-.7-1.7l-2.2-2.2a2 2 0 0 0-1.7-.7h-7.4a2.4 2.4 0 0 0-2.4 2.4v14.4a2.4 2.4 0 0 0 2.4 2.4Zm7.2-13.8h2.8a.6.6 0 0 0 .4-1l-2.8-2.8a.6.6 0 0 0-1 .4v2.8a1 1 0 0 0 .6.6Zm-1.4 1.6a1 1 0 1 0-2 0v8.6a1 1 0 1 0 2 0zm-3.6 5.8a1 1 0 1 0-2 0v2.8a1 1 0 1 0 2 0zm7.2-2a1 1 0 1 0-2 0v4.8a1 1 0 1 0 2 0z" clip-rule="evenodd"/></svg>

<svg viewBox="0 0 16 20"><path fill="currentColor" fill-rule="evenodd" d="M3.2 19.6h9.6a2.4 2.4 0 0 0 2.4-2.4V5a2 2 0 0 0-.7-1.7l-2.2-2.2a2 2 0 0 0-1.7-.7H3.2A2.4 2.4 0 0 0 .8 2.8v14.4a2.4 2.4 0 0 0 2.4 2.4m7.2-13.8h2.8a.6.6 0 0 0 .4-1L10.8 2a.6.6 0 0 0-1 .4v2.8zM9 7.4a1 1 0 1 0-2 0V16a1 1 0 1 0 2 0zm-3.6 5.8a1 1 0 1 0-2 0V16a1 1 0 1 0 2 0zm7.2-2a1 1 0 1 0-2 0V16a1 1 0 1 0 2 0z" clip-rule="evenodd"/></svg>
